packages/crayons-core/src/components/icon/icon-assets/icons/formatting-maintain.svg

<?xml version="1.0" encoding="UTF-8"?>
<svg width="16px" height="13px" viewBox="0 0 16 13" version="1.1" xmlns="http://www.w3.org/2000/svg" xmlns:xlink="http://www.w3.org/1999/xlink">
    <!-- Generator: Sketch 52.6 (67491) - http://www.bohemiancoding.com/sketch -->
    <title>icon/formatting-maintain</title>
    <desc>Created with Sketch.</desc>
    <g id="Icons-✅" stroke="none" stroke-width="1" fill="none" fill-rule="evenodd">
        <g id="Icons" transform="translate(-408.000000, -1994.000000)" fill="currentColor">
            <g id="icon/formatting-maintain" transform="translate(408.000000, 1994.000000)">
                <g id="formatting-maintain">
                    <path d="M12,3.65 C12.0139041,3.84415178 11.9463394,4.03532587 11.8135268,4.17762506 C11.6807143,4.31992425 11.4946484,4.40049723 11.3,4.4 L8.17,4.4 L8.17,11.4 C8.17,11.7865993 7.85659932,12.1 7.47,12.1 L4.53,12.1 C4.14340068,12.1 3.83,11.7865993 3.83,11.4 L3.83,4.4 L0.7,4.4 C0.313400675,4.4 5.37641528e-15,4.08659932 5.32907052e-15,3.7 L5.32907052e-15,0.7 C5.37641528e-15,0.313400675 0.313400675,-4.4408921e-14 0.7,-4.4408921e-14 L11.3,-4.4408921e-14 C11.6865993,-4.4408921e-14 12,0.313400675 12,0.7 L12,3.65 Z M10.6,3 L10.6,1.4 L1.4,1.4 L1.4,2.95 L4.53,2.95 C4.91435036,2.95537631 5.22462369,3.26564964 5.23,3.65 L5.23,10.7 L6.77,10.7 L6.77,3.7 C6.77537631,3.31564964 7.08564964,3.00537631 7.47,3 L10.6,3 Z M15.8,5.91 C16.0680079,6.18558469 16.0680079,6.62441531 15.8,6.9 L12.59,10.12 C12.3132022,10.3945556 11.8667978,10.3945556 11.59,10.12 L9.92,8.45 C9.64544444,8.17320224 9.64544444,7.72679776 9.92,7.45 C10.0502531,7.31303562 10.2309892,7.23549974 10.42,7.23549974 C10.6090108,7.23549974 10.7897469,7.31303562 10.92,7.45 L12.08,8.62 L14.8,5.91 C14.9302531,5.77303562 15.1109892,5.69549974 15.3,5.69549974 C15.4890108,5.69549974 15.6697469,5.77303562 15.8,5.91 Z" id="Combined-Shape"></path>
                </g>
            </g>
        </g>
    </g>
</svg>

<svg viewBox="0 0 16 13"><path d="M12 3.65a.7.7 0 0 1-.7.75H8.17v7a.7.7 0 0 1-.7.7H4.53a.7.7 0 0 1-.7-.7v-7H.7a.7.7 0 0 1-.7-.7v-3A.7.7 0 0 1 .7 0h10.6a.7.7 0 0 1 .7.7v2.95zM10.6 3V1.4H1.4v1.55h3.13a.71.71 0 0 1 .7.7v7.05h1.54v-7a.71.71 0 0 1 .7-.7h3.13zm5.2 2.91a.71.71 0 0 1 0 .99l-3.21 3.22a.71.71 0 0 1-1 0L9.92 8.45a.71.71 0 0 1 0-1 .69.69 0 0 1 1 0l1.16 1.17 2.72-2.71a.69.69 0 0 1 1 0z" fill="currentColor" fill-rule="evenodd"/></svg>
